!!!COM: Frescobaldi, Girolamo
!!!CDT: 1583///-1643
!!!ONM: No. 17
!!!OTL: No. 17: Canzon Sesta &agrave; 2. Canto e Basso
!!!OPR: Canzoni da sonare a una, due, tre et quattro, libro primo
!!!PPP: Venezia
!!!PDT: 1634
!!!URL: http://icking-music-archive.org/ByComposer/Frescobaldi.html
!!!ONB: Andrea Friggi, ed.
**kern	**kern	**kern
!Basso ad Organo	!Basso	!Canto
*staff3	*staff2	*staff1
*Icello	*Icello	*Ivioln
*clefF4	*clefF4	*clefG2
*k[b-]	*k[b-]	*k[b-]
*met(C)	*met(C)	*met(C)
*M4/4	*M4/4	*M4/4
*MM120	*MM120	*MM120
=1-	=1-	=1-
1G	1r	2r
.	.	2dd\
=2	=2	=2
2B-\	1r	2.dd\
2F#\	.	.
.	.	4cc\
=3	=3	=3
2G\	1r	2b-\
2D\	.	2a/
=4	=4	=4
1G	2r	1b-
.	2G\	.
=5	=5	=5
2.G\	2.G\	4r
.	.	4g/
.	.	4b-\
4F\	4F\	8a/L
.	.	8b-/J
=6	=6	=6
2E-\	2E-\	4cc\
.	.	8b-\L
.	.	8cc\J
2D\	2D\	4dd\
.	.	4ff\
=7	=7	=7
2C/	2C/	4.ee-\
.	.	8ee-\
4D\	4D\	2dd\
4E\	4E\	.
=8	=8	=8
1F	2F\	4cc\
.	.	2b-\
.	2FF/	.
.	.	4a/
=9	=9	=9
1BB-	1BB-	2b-\
.	.	2ff\
=10	=10	=10
2F\	4r	2.ff\
.	4F\	.
4A\	4A\	.
8G\L	8G\L	4ee\
8A\J	8A\J	.
=11	=11	=11
4B-\	4B-\	2dd\
8A\L	8A\L	.
8B-\J	8B-\J	.
4c\	4c\	2cc\
4C/	4C/	.
=12	=12	=12
4G\	4G\	2b-\
4GG/	4GG/	.
4BB-/	4BB-/	8r
.	.	8dd\
8AA/L	8AA/L	4ff\
8BB-/J	8BB-/J	.
=13	=13	=13
4C/	4C/	4ee\
8BB-/L	8BB-/L	2g/
8C/J	8C/J	.
2D\	2D\	.
.	.	4f#/
=14	=14	=14
1GG	1GG	2g/
.	.	4r
.	.	4dd\
=15	=15	=15
2D\	1r	2.dd\
2F#\	.	.
.	.	4cc\
=16	=16	=16
2G\	1r	2b-\
2F#\	.	2a/
=17	=17	=17
4G\	4r	2b-\
4B-\	4B-\	.
[2BB-/	[2B-\	4r
.	.	4b-\
=18	=18	=18
4BB-/]	4B-\]	4dd\
4AA/	4A\	8cc\L
.	.	8dd\J
2GG/	2G\	4ee-\
.	.	8dd\L
.	.	8een\J
=19	=19	=19
2FF/	2F\	4ff\
.	.	4a/
2C/	4r	2cc\
.	4C/	.
=20	=20	=20
4E-\	4E-\	4g/
8D\L	8D\L	4b-\
8E-\J	8E-\J	.
4F\	4F\	8a/L
.	.	8b-/J
4AA/	4AA/	[4cc\
=21	=21	=21
4.C/	4.C/	8cc\L]
.	.	8b-\J
.	.	4.g/
8BB-/	8BB-/	.
4.GG/	4.GG/	.
.	.	8a/
.	.	[4b-\
8AA/	8AA/	.
=22	=22	=22
4.BB-/	4.BB-/	8b-\L]
.	.	8cc\
.	.	8dd\
8C/	8C/	8ee\J
4D\	8D\L	4ff\
.	8E\J	.
4F\	4F\	8cc\L
.	.	8dd\J
=23	=23	=23
4C/	8C/L	4.ee-\
.	8D/J	.
4.E-\	4.E-\	.
.	.	8dd\
.	.	4.b-\
8D\	8D\	.
[4BB-/	[4BB-/	.
.	.	8cc\
=24	=24	=24
4BB-/]	8BB-/L]	2dd\
.	8C/	.
4BB-/	8D/	.
.	8BB-/J	.
2FF/	4F\	2cc\
.	4FF/	.
=25	=25	=25
1BB-	1BB-	1b-
=26	=26	=26
2B-\	2r	1r
4.B-\	4B-\	.
.	8B-\L	.
8B-\	8B-\J	.
=27	=27	=27
4A\	8.A\L	1r
.	16B-\Jk	.
4G\	8.G\L	.
.	16A\Jk	.
4F#\	4F#\	.
4D\	4D\	.
=28	=28	=28
2G\	4G\	2r
.	4GG/	.
2D\	2D\	4ff\
.	.	8ff\L
.	.	8ff\J
=29	=29	=29
4C/	1r	8.ee\L
.	.	16ff\Jk
4BB-/	.	8.dd\L
.	.	16ee\Jk
2AA/	.	4cc#\
.	.	4a/
=30	=30	=30
4BB-/	4r	2dd\
4GG/	4G\	.
2C/	2c\	4r
.	.	8cc\L
.	.	8b-\J
=31	=31	=31
4.F\	4r	2a/
.	8F\L	.
8E\	8E\J	.
4D\	2D\	4dd\
4BB-/	.	8dd\L
.	.	8dd\J
=32	=32	=32
4F\	2r	8.cc\L
.	.	16dd\Jk
4G\	.	8.b-\L
.	.	16cc\Jk
2D\	4D\	2a/
.	8D\L	.
.	8D\J	.
=33	=33	=33
4C/	8.C/L	4r
.	16D/Jk	.
4BB-/	8.BB-/L	4g/
.	16C/Jk	.
4AA/	4AA/	2cc\
4A\	8A\L	.
.	8G\J	.
=34	=34	=34
2F\	2F\	4r
.	.	8ff\L
.	.	8ee\J
2BB-/	4r	4dd\
.	4BB-/	8gg\L
.	.	8ff\J
=35	=35	=35
4C/	4C/	4ee-\
4D\	4D\	8dd\L
.	.	8cc\J
2GG/	4GG/	4b-\
.	[4G\	8cc\L
.	.	8b-\J
=36	=36	=36
2D\	4G\]	2a/
.	4F#\	.
2GG/	2G\	2g/
=37	=37	=37
*M3/1	*M3/1	*M3/1
0G	0.r	1dd
.	.	1dd
1G	.	1dd
=38	=38	=38
0B-	1B-	0.dd
.	1B-	.
1B-	1B-	.
=39	=39	=39
0B-	0B-	1r
.	.	1r
1BB-	1BB-	1dd
=40	=40	=40
1F	1F	2.cc\
.	.	4dd\
1G	1G	2.b-\
.	.	4cc\
1D	1D	1a
=41	=41	=41
0.GG	0GG	1r
.	.	1b-
.	1r	1g
=42	=42	=42
1BB-	0.r	1dd
1AA	.	1dd
1GG	.	1ee
=43	=43	=43
1FF	1r	1ff
1F	1F	1ff
1D	1D	1ff
=44	=44	=44
0G	1G	1r
.	1G	1ee-
1A	1A	1cc
=45	=45	=45
0B-	0B-	1.dd
.	.	2ee\
1A	1r	2cc\
.	.	2dd\
=46	=46	=46
0G	1r	1.b-
.	1G	.
.	.	2cc\
1F	1F	2a/
.	.	2b-\
=47	=47	=47
1E-	1E-	0.g
1C	1C	.
1BB-	1BB-	.
=48	=48	=48
1AA	1AA	0.r
0D	0D	.
=49	=49	=49
1GG	1GG	1r
1AA	1AA	1ff
1BB-	1BB-	1dd
=50	=50	=50
0.C	0.C	1ee-
.	.	1.cc
.	.	2b-\
=51	=51	=51
0.FF	0.FF	1.a
.	.	2b-\
.	.	2cc\
.	.	2a/
=52	=52	=52
0BB-	0.r	1dd
.	.	1cc
1C	.	1b-
=53	=53	=53
0.D	0.r	0.a
=54	=54	=54
*met(C)	*met(C)	*met(C)
*M4/4	*M4/4	*M4/4
2GG/	2r	1g
2G\	2G\	.
=55	=55	=55
2.E-\	2.E-\	1r
4D\	4D\	.
=56	=56	=56
2C/	2C/	1r
2BBn/	2BBn/	.
=57	=57	=57
1C	1C	1r
=58	=58	=58
1GG	1GG	2r
.	.	2dd\
=59	=59	=59
2G\	1r	2.b-\
2F\	.	.
.	.	4a/
=60	=60	=60
2E-\	1r	2g/
2D\	.	2f#/
=61	=61	=61
2GG/	4r	2g/
.	4GG/	.
[2C/	[2C/	4r
.	.	4ee-\
=62	=62	=62
2C/]	2C/]	2.dd\
2BBn/	2BBn/	.
.	.	4dd\
=63	=63	=63
2C/	2C/	2ee-\
4D\	4D\	2dd\
4E\	4E\	.
=64	=64	=64
1F	1F	1cc
=65	=65	=65
1BB-	1BB-	1b-
=66	=66	=66
*M3/2	*M3/2	*M3/2
1B-	2r	1.r
.	2r	.
2B-\	2B-\	.
=67	=67	=67
1A	2.A\	1.r
.	4B-\	.
2G\	2G\	.
=68	=68	=68
1.F#	1.F#	2r
.	.	2r
.	.	2dd\
=69	=69	=69
1G	2r	2.dd\
.	2r	.
.	.	4cc\
2G\	2G\	2b-\
=70	=70	=70
1F	2.F\	2.a/
.	4G\	4b-\
2E-\	2E-\	2g/
=71	=71	=71
1.D	1.D	1a
.	.	2dd\
=72	=72	=72
2E-\	2E-\	2b-\
1C	1C	2.cc\
.	.	4b-\
=73	=73	=73
1.D	1.D	1.a
=74	=74	=74
1GG	1GG	2r
.	.	2r
2D\	2D\	2ff\
=75	=75	=75
1C	2.C/	2.ee\
.	4D\	4ff\
2BB-/	2BB-/	2dd\
=76	=76	=76
2AA/	2AA/	1cc
2A\	2A\	.
2G\	2G\	2b-\
=77	=77	=77
1F#	2.F#\	2a/
.	.	1dd
.	4E\	.
2D\	4F#\	.
.	4D\	.
=78	=78	=78
1G	1G	2b-\
.	.	1ee-
2E-\	2E-\	.
=79	=79	=79
1F	1F	2cc\
.	.	1ff
2D\	2D\	.
=80	=80	=80
2G\	2G\	1ee
2A\	2A\	.
2B-\	2B-\	2dd\
=81	=81	=81
2A\	2A\	1dd
1AA	1AA	.
.	.	2cc#\
=82	=82	=82
*met(C)	*met(C)	*met(C)
*M4/4	*M4/4	*M4/4
1D	1D	1dd
=83	=83	=83
2BB-/	1r	8r
.	.	16ff\LL
.	.	16ee\JJ
.	.	8dd\L
.	.	16cc\L
.	.	16b-\JJ
4F\	.	8a\L
.	.	8cc\J
4G\	.	4bn\
=84	=84	=84
4.C/	4r	2cc\
.	8C/L	.
8D\	8D/J	.
4E-\	4E-\	2r
4F\	4F\	.
=85	=85	=85
2BB-/	2BB-/	8r
.	.	16dd\LL
.	.	16cc\JJ
.	.	8b-\L
.	.	16cc\L
.	.	16b-\JJ
4F\	2r	8a\L
.	.	8ff\J
4A\	.	4ee\
=86	=86	=86
4.D\	4r	2dd\
.	8D\L	.
8E\	8E\J	.
4F\	4F\	2r
4G\	4G\	.
=87	=87	=87
4.C/	2C/	8r
.	.	16cc\LL
.	.	16b-\JJ
.	.	8a/L
8D\	.	16b-/L
.	.	16a/JJ
4E-\	2r	8g/L
.	.	8b-/J
4F\	.	4a/
=88	=88	=88
4.BB-/	4r	2b-\
.	8BB-/L	.
8C/	8C/J	.
4D\	4D\	2r
4C/	4C/	.
=89	=89	=89
2FF/	2FF/	8r
.	.	16cc\LL
.	.	16b-\JJ
.	.	8a\L
.	.	16dd\L
.	.	16cc\JJ
4GG/	2r	8b-\L
.	.	8dd\J
4AA/	.	4cc#\
=90	=90	=90
2BB-/	2r	4r
.	.	8dd\L
.	.	8ee\J
4B-\	8r	2ff\
.	8B-\L	.
8A\L	8A\	.
8B-\J	8B-\J	.
=91	=91	=91
2G\	2G\	4r
.	.	8b-\L
.	.	8cc\J
4G\	8r	2dd\
.	8G\L	.
8F\L	8F\	.
8G\J	8G\J	.
=92	=92	=92
2E-\	2E-\	4r
.	.	8g/L
.	.	8a/J
4E-\	8r	2b-\
.	8E-\L	.
8D\L	8D\	.
8E-\J	8E-\J	.
=93	=93	=93
2C/	2C/	4r
.	.	8a/L
.	.	8b-/J
4C/	8r	[2cc\
.	8C/L	.
8BB-/L	8BB-/	.
8C/J	8C/J	.
=94	=94	=94
4AA/	4AA/	4cc\]
4GG/	4GG/	4b-\
2D\	2D\	2a/
=95	=95	=95
4GG/	4r	2g/
8G\L	8G\L	.
8A\J	8A\J	.
2B-\	2B-\	8r
.	.	8ff\L
.	.	8ee\
.	.	8ff\J
=96	=96	=96
4BB-/	4r	2dd\
8D\L	8D\L	.
8E\J	8E\J	.
4.F\	2F\	8r
.	.	8dd\L
.	.	8cc\
8D\	.	8dd\J
=97	=97	=97
4G\	4r	2b-\
8BB-/L	8BB-/L	.
8C/J	8C/J	.
4.D\	2D\	8r
.	.	8b-/L
.	.	8a/
8BB-/	.	8b-/J
=98	=98	=98
4.E-\	4r	2g/
.	8E-\L	.
8F\	8F\J	.
4G\	8G/L	4r
.	8GG/	.
8GG/L	8GG/	8b-\L
8AA/J	8AA/J	8cc\J
=99	=99	=99
4.BB-/	4BB-/	8dd\L
.	.	8dd\
.	8B-\L	8dd\
8C/	8c\J	8ee\J
4.D\	8d\L	4ff\
.	8D\	.
.	8D\	8f/L
8E\	8E\J	8g/J
=100	=100	=100
2F\	4F\	8a\L
.	.	8cc\
.	8A\L	8cc\
.	8B-\J	8dd\J
4.C/	8c\L	2ee-\
.	8C\	.
.	8C\	.
8D\	8D\J	.
=101	=101	=101
2E-\	8E-\L	4r
.	8E-\	.
.	8D\	8g/L
.	8C\J	8a/J
2BB-/	8BB-/L	8b-/L
.	8C/	8b-/
.	8D/	8a/
.	8En/J	8g/J
=102	=102	=102
8F/L	8F/L	8a/L
8D/	8D/	8a/
8C/	8C/	8a/
8BB-/J	8BB-/J	8b-/J
4.AA/	8AA/L	8cc\L
.	8AA/	8cc\
.	8AA/	8b-\
8BB-/	8BB-/J	8a\J
=103	=103	=103
4C/	8C/L	2g/
.	8D/	.
4E-\	8E-/	.
.	8C/J	.
2D\	2D\	4.f#/
.	.	16e/LL
.	.	16f#/JJ
=104	=104	=104
0GG	0GG	0g
==	==	==
*-	*-	*-
!!!ENC: Craig Stuart Sapp
!!!END: 2004/12/14/
